X:1
T:Maiden Voyage
T:Maiden Voyage
T:2
C:Herbie Hancock
Z:All Rights Reserved
L:1/8
Q:1/4=120
M:4/4
K:C
V:1 treble nm="MusicXML Part"
%%MIDI program 0
%%MIDI control 7 102
%%MIDI control 10 64
V:1
 [DA]2 [DA]3 [DA]3- | [DA]3 [DA]2 A dA | [DA]2 [DA]3 [DA]3- | [DA]3 [DA]2 A dA | %4
 [Fc]2 [Fc]3 [Fc]3- | [Fc]3 [Fc]2 c fc | [Fc]2 [Fc]3 [Fc]3- | [Fc]3 [Fc]2 c fc |:"D9sus4" d8- | %9
 d8 | z8 | z6 cd |"F9sus4" _ef c6- | c8 | z8 | z6 Ad |"D9sus4" d8- | d8 | z8 | z6 cd | %20
"F9sus4" _ef c6- | c8 | z8 | z6 cf |"Eb9sus4" f8- | f8 | z8 | z6 _e_g |"Dbm9" _f_g _d6- | d8- | %30
 d8 | z6 Ad |"D9sus4" d8- | d8 | z8 | z6 cd |"F9sus4" _ef c6- | c8- | c8 | z8 :| %40

